packages/core/src/svgs/bat.svg

<svg width="24" height="24" viewBox="0 0 24 24" fill="none" xmlns="http://www.w3.org/2000/svg">
<g clip-path="url(#clip0_31_6753)">
<path d="M0 0H24V24H0V0Z" fill="#FF4724"/>
<path d="M11.9999 5.14307C11.9481 5.14323 11.8973 5.15696 11.8524 5.18291C11.8076 5.20885 11.7704 5.2461 11.7445 5.29092L5.61074 15.8466C5.58474 15.8915 5.57104 15.9424 5.57104 15.9943C5.57104 16.0461 5.58474 16.0971 5.61074 16.1419L9.35388 14.1426L12.0003 9.42707L11.9999 5.14307Z" fill="white"/>
<path d="M18.3888 15.8462L12.2563 5.29049C12.23 5.24594 12.1926 5.20895 12.1478 5.18312C12.103 5.15729 12.0522 5.14349 12.0005 5.14307V9.42835L14.6392 14.1516L18.3892 16.1432C18.4155 16.0981 18.4293 16.0469 18.4293 15.9947C18.4293 15.9425 18.4151 15.8913 18.3888 15.8462Z" fill="white"/>
<path d="M18.3886 16.1488L14.6429 14.1431H9.35692L5.61035 16.1488C5.63649 16.1904 5.67378 16.2251 5.71878 16.2491C5.76433 16.2732 5.81508 16.2859 5.86664 16.2859H18.1311C18.1829 16.286 18.234 16.2733 18.2798 16.2491C18.324 16.2258 18.3614 16.1914 18.3882 16.1492L18.3886 16.1488Z" fill="white"/>
</g>
<defs>
<clipPath id="clip0_31_6753">
<rect width="24" height="24" fill="white"/>
</clipPath>
</defs>
</svg>

<svg xmlns="http://www.w3.org/2000/svg" width="24" height="24" fill="none" viewBox="0 0 24 24"><g clip-path="url(#a)"><path fill="#FF4724" d="M0 0h24v24H0z"/><path fill="#fff" d="M12 5.143a.3.3 0 0 0-.255.148L5.61 15.847a.3.3 0 0 0 0 .295l3.743-2L12 9.428zM18.389 15.846 12.256 5.29a.3.3 0 0 0-.255-.147v4.285l2.638 4.724 3.75 1.991a.3.3 0 0 0 0-.297"/><path fill="#fff" d="m18.389 16.149-3.746-2.006H9.357L5.61 16.15a.3.3 0 0 0 .109.1.3.3 0 0 0 .148.037H18.13a.3.3 0 0 0 .149-.037.3.3 0 0 0 .108-.1"/></g><defs><clipPath id="a"><path fill="#fff" d="M0 0h24v24H0z"/></clipPath></defs></svg>
